apps/64/preferences-desktop-screensaver.svg

<?xml version="1.0" encoding="UTF-8" standalone="no"?>
<!-- Created with Inkscape (http://www.inkscape.org/) -->

<svg
   xmlns:dc="http://purl.org/dc/elements/1.1/"
   xmlns:cc="http://creativecommons.org/ns#"
   xmlns:rdf="http://www.w3.org/1999/02/22-rdf-syntax-ns#"
   xmlns:svg="http://www.w3.org/2000/svg"
   xmlns="http://www.w3.org/2000/svg"
   xmlns:sodipodi="http://sodipodi.sourceforge.net/DTD/sodipodi-0.dtd"
   xmlns:inkscape="http://www.inkscape.org/namespaces/inkscape"
   id="svg13094"
   height="64"
   width="64"
   version="1.1"
   inkscape:version="0.91+devel r"
   sodipodi:docname="preferences-desktop-screensaver.svg"
   inkscape:export-filename="folder.png"
   inkscape:export-xdpi="90"
   inkscape:export-ydpi="90">
  <sodipodi:namedview
     pagecolor="#ffffff"
     bordercolor="#666666"
     borderopacity="1"
     objecttolerance="10"
     gridtolerance="10"
     guidetolerance="10"
     inkscape:pageopacity="0"
     inkscape:pageshadow="2"
     inkscape:window-width="1920"
     inkscape:window-height="1023"
     id="namedview46"
     showgrid="true"
     inkscape:snap-bbox="true"
     inkscape:bbox-paths="true"
     inkscape:bbox-nodes="true"
     inkscape:snap-bbox-edge-midpoints="true"
     inkscape:snap-bbox-midpoints="true"
     inkscape:snap-nodes="true"
     inkscape:object-paths="true"
     inkscape:snap-intersection-paths="true"
     inkscape:object-nodes="true"
     inkscape:snap-smooth-nodes="true"
     inkscape:snap-midpoints="true"
     inkscape:snap-object-midpoints="true"
     inkscape:snap-center="true"
     fit-margin-top="0"
     fit-margin-left="0"
     fit-margin-right="0"
     fit-margin-bottom="0"
     inkscape:zoom="10.429825"
     inkscape:cx="16.209519"
     inkscape:cy="31.287085"
     inkscape:window-x="-10"
     inkscape:window-y="35"
     inkscape:window-maximized="1"
     inkscape:current-layer="svg13094"
     showguides="true"
     inkscape:guide-bbox="true"
     inkscape:snap-page="true"
     inkscape:snap-global="false">
    <inkscape:grid
       type="xygrid"
       id="grid3023"
       empspacing="5"
       visible="true"
       enabled="true"
       snapvisiblegridlinesonly="true"
       originx="-80px"
       originy="-75px" />
  </sodipodi:namedview>
  <defs
     id="defs11" />
  <metadata
     id="metadata13099">
    <rdf:RDF>
      <cc:Work
         rdf:about="">
        <dc:format>image/svg+xml</dc:format>
        <dc:type
           rdf:resource="http://purl.org/dc/dcmitype/StillImage" />
        <dc:title></dc:title>
      </cc:Work>
    </rdf:RDF>
  </metadata>
  <path
     sodipodi:nodetypes="ccccccccc"
     inkscape:connector-curvature="0"
     style="color:#000000;display:inline;overflow:visible;visibility:visible;opacity:1;fill:#3b577a;fill-opacity:1;fill-rule:nonzero;stroke:none;stroke-width:1;stroke-linecap:butt;stroke-linejoin:miter;stroke-miterlimit:4;stroke-dasharray:none;stroke-dashoffset:0;stroke-opacity:1;marker:none;enable-background:accumulate"
     id="path3812"
     d="M 0,1 2,0 62,0 64,1 64,62 62,64 2,64 0,62 Z" />
  <path
     d="M 0,1 2,0 62,0 64,1 64,4 0,4 Z"
     id="path3029"
     style="color:#000000;display:inline;overflow:visible;visibility:visible;opacity:1;fill:#668cbb;fill-opacity:1;fill-rule:nonzero;stroke:none;stroke-width:2.28571415;stroke-linecap:butt;stroke-linejoin:miter;stroke-miterlimit:4;stroke-dasharray:none;stroke-dashoffset:0;stroke-opacity:1;marker:none;enable-background:accumulate"
     inkscape:connector-curvature="0"
     sodipodi:nodetypes="ccccccc" />
  <path
     d="M 64,6 62,4 64,3 Z"
     id="path3028"
     style="opacity:1;fill:#162f4d;fill-opacity:0.35241502;stroke:none;stroke-width:0.62299293;stroke-linecap:butt;stroke-linejoin:miter;stroke-miterlimit:4;stroke-dasharray:none;stroke-dashoffset:0;stroke-opacity:1;marker:none"
     inkscape:connector-curvature="0" />
  <path
     d="M 0,6 2,4 0,3 Z"
     id="path3028-6"
     style="opacity:1;fill:#87bde7;fill-opacity:0.54740607;stroke-width:1;stroke-linecap:butt;stroke-linejoin:miter;stroke-miterlimit:4;stroke-dasharray:none;stroke-dashoffset:0;stroke-opacity:1"
     inkscape:connector-curvature="0" />
  <path
     style="color:#000000;display:inline;overflow:visible;visibility:visible;fill:#2c8fe4;fill-opacity:1;fill-rule:nonzero;stroke:none;stroke-width:1;marker:none;enable-background:accumulate"
     d="m 6,10 52,0 0,47 -52,0 z"
     id="rect3776"
     inkscape:connector-curvature="0"
     sodipodi:nodetypes="ccccc" />
  <path
     inkscape:connector-curvature="0"
     id="rect3776-4"
     d="m 6,10 0,47 18.6875,0 18,-47 L 6,10 Z"
     style="color:#000000;display:inline;overflow:visible;visibility:visible;fill:#6ce3ff;fill-opacity:0.177102;fill-rule:nonzero;stroke:none;stroke-width:1;marker:none;enable-background:accumulate" />
  <g
     id="g3213"
     style="opacity:1;fill:#6ce3ff;fill-opacity:0.65295172;stroke:none;stroke-width:1;stroke-linecap:butt;stroke-linejoin:miter;stroke-miterlimit:4;stroke-dasharray:none;stroke-dashoffset:0;stroke-opacity:1;marker:none">
    <path
       id="path5842"
       d="M 39.53125 10 C 39.156035 16.230135 37.729595 22.177406 39.625 26.34375 C 38.425172 21.865932 40.574671 16.032889 41.71875 10 L 39.53125 10 z "
       style="color:#000000;fill:#6ce3ff;fill-opacity:0.65295172;fill-rule:nonzero;stroke:none;stroke-width:1;marker:none;visibility:visible;display:inline;overflow:visible;enable-background:accumulate;stroke-linecap:butt;stroke-linejoin:miter;stroke-miterlimit:4;stroke-dasharray:none;stroke-dashoffset:0;stroke-opacity:1" />
    <path
       id="path5836"
       d="M 35.1875 10 C 36.556034 16.31059 36.621626 22.69548 39.625 26.34375 C 37.304718 22.324903 37.865157 16.129607 37.40625 10 L 35.1875 10 z "
       style="color:#000000;fill:#6ce3ff;fill-opacity:0.65295172;fill-rule:nonzero;stroke:none;stroke-width:1;marker:none;visibility:visible;display:inline;overflow:visible;enable-background:accumulate;stroke-linecap:butt;stroke-linejoin:miter;stroke-miterlimit:4;stroke-dasharray:none;stroke-dashoffset:0;stroke-opacity:1" />
    <path
       id="path5830"
       d="M 30.1875 10 C 33.748865 16.181019 35.395262 23.322509 39.625 26.34375 C 36.129827 22.848577 35.154651 16.119143 32.84375 10 L 30.1875 10 z "
       style="color:#000000;fill:#6ce3ff;fill-opacity:0.65295172;fill-rule:nonzero;stroke:none;stroke-width:1;marker:none;visibility:visible;display:inline;overflow:visible;enable-background:accumulate;stroke-linecap:butt;stroke-linejoin:miter;stroke-miterlimit:4;stroke-dasharray:none;stroke-dashoffset:0;stroke-opacity:1" />
    <path
       id="path5824"
       d="M 22.78125 10 C 29.909575 15.043017 33.710471 24.127963 39.625 26.34375 C 34.700224 23.500429 31.883656 15.663494 27.03125 10 L 22.78125 10 z "
       style="color:#000000;fill:#6ce3ff;fill-opacity:0.65295172;fill-rule:nonzero;stroke:none;stroke-width:1;marker:none;visibility:visible;display:inline;overflow:visible;enable-background:accumulate;stroke-linecap:butt;stroke-linejoin:miter;stroke-miterlimit:4;stroke-dasharray:none;stroke-dashoffset:0;stroke-opacity:1" />
    <path
       id="path5818"
       d="M 13.84375 10.4375 C 11.465769 10.374661 8.8724353 10.913337 6 12.21875 L 6 15.03125 C 21.719904 9.1413589 30.408895 25.450223 39.625 26.34375 C 31.656112 24.208493 25.240063 10.738653 13.84375 10.4375 z "
       style="color:#000000;fill:#6ce3ff;fill-opacity:0.65295172;fill-rule:nonzero;stroke:none;stroke-width:1;marker:none;visibility:visible;display:inline;overflow:visible;enable-background:accumulate;stroke-linecap:butt;stroke-linejoin:miter;stroke-miterlimit:4;stroke-dasharray:none;stroke-dashoffset:0;stroke-opacity:1" />
    <path
       id="path5812"
       d="M 13.625 17.25 C 11.164063 17.323242 8.6074219 18.014465 6 19.59375 L 6 22.96875 C 18.97513 15.500555 30.888202 27.799883 39.625 26.34375 C 32.125 26.34375 23.46875 16.957031 13.625 17.25 z "
       style="color:#000000;fill:#6ce3ff;fill-opacity:0.65295172;fill-rule:nonzero;stroke:none;stroke-width:1;marker:none;visibility:visible;display:inline;overflow:visible;enable-background:accumulate;stroke-linecap:butt;stroke-linejoin:miter;stroke-miterlimit:4;stroke-dasharray:none;stroke-dashoffset:0;stroke-opacity:1" />
    <path
       id="path5806"
       d="M 16.46875 23.625 C 12.800749 23.757678 9.2249258 24.896295 6 27.96875 L 6 32.0625 C 16.618435 21.082203 31.496849 30.041508 39.625 26.34375 C 33.467223 27.993721 24.741549 23.325758 16.46875 23.625 z "
       style="color:#000000;fill:#6ce3ff;fill-opacity:0.65295172;fill-rule:nonzero;stroke:none;stroke-width:1;marker:none;visibility:visible;display:inline;overflow:visible;enable-background:accumulate;stroke-linecap:butt;stroke-linejoin:miter;stroke-miterlimit:4;stroke-dasharray:none;stroke-dashoffset:0;stroke-opacity:1" />
    <path
       id="path5800"
       d="M 39.625 26.34375 C 31.045176 31.297313 12.533638 23.135576 6 39.8125 L 6 47.71875 C 10.895048 25.535974 31.715641 32.854991 39.625 26.34375 z "
       style="color:#000000;fill:#6ce3ff;fill-opacity:0.65295172;fill-rule:nonzero;stroke:none;stroke-width:1;marker:none;visibility:visible;display:inline;overflow:visible;enable-background:accumulate;stroke-linecap:butt;stroke-linejoin:miter;stroke-miterlimit:4;stroke-dasharray:none;stroke-dashoffset:0;stroke-opacity:1" />
    <path
       id="path5794"
       d="M 39.625 26.34375 C 31.623257 34.345494 6.6739669 29.155971 10.96875 57 L 12.78125 57 C 10.866939 32.952938 33.560028 34.834712 39.625 26.34375 z "
       style="color:#000000;fill:#6ce3ff;fill-opacity:0.65295172;fill-rule:nonzero;stroke:none;stroke-width:1;marker:none;visibility:visible;display:inline;overflow:visible;enable-background:accumulate;stroke-linecap:butt;stroke-linejoin:miter;stroke-miterlimit:4;stroke-dasharray:none;stroke-dashoffset:0;stroke-opacity:1" />
    <path
       id="path5788"
       d="M 39.625 26.34375 C 34.47547 35.262997 12.930983 37.276211 17.65625 57 L 20.09375 57 C 17.532934 39.346697 36.304864 35.206084 39.625 26.34375 z "
       style="color:#000000;fill:#6ce3ff;fill-opacity:0.65295172;fill-rule:nonzero;stroke:none;stroke-width:1;marker:none;visibility:visible;display:inline;overflow:visible;enable-background:accumulate;stroke-linecap:butt;stroke-linejoin:miter;stroke-miterlimit:4;stroke-dasharray:none;stroke-dashoffset:0;stroke-opacity:1" />
    <path
       id="path5782"
       d="M 39.625 26.34375 C 37.201914 35.38683 20.217546 42.40444 24.40625 57 L 27.4375 57 C 24.475773 43.122777 38.789373 34.962656 39.625 26.34375 z "
       style="color:#000000;fill:#6ce3ff;fill-opacity:0.65295172;fill-rule:nonzero;stroke:none;stroke-width:1;marker:none;visibility:visible;display:inline;overflow:visible;enable-background:accumulate;stroke-linecap:butt;stroke-linejoin:miter;stroke-miterlimit:4;stroke-dasharray:none;stroke-dashoffset:0;stroke-opacity:1" />
    <path
       id="path5776"
       d="M 39.625 26.34375 C 39.625 35.000346 27.166203 45.221044 31.46875 57 L 34.875 57 C 30.600466 45.181293 40.96946 34.410509 39.625 26.34375 z "
       style="color:#000000;fill:#6ce3ff;fill-opacity:0.65295172;fill-rule:nonzero;stroke:none;stroke-width:1;marker:none;visibility:visible;display:inline;overflow:visible;enable-background:accumulate;stroke-linecap:butt;stroke-linejoin:miter;stroke-miterlimit:4;stroke-dasharray:none;stroke-dashoffset:0;stroke-opacity:1" />
    <path
       id="path5770"
       d="M 39.625 26.34375 C 41.78924 34.420806 33.102012 46.907175 39 57 L 42.8125 57 C 35.857307 46.721661 42.989436 33.739216 39.625 26.34375 z "
       style="color:#000000;fill:#6ce3ff;fill-opacity:0.65295172;fill-rule:nonzero;stroke:none;stroke-width:1;marker:none;visibility:visible;display:inline;overflow:visible;enable-background:accumulate;stroke-linecap:butt;stroke-linejoin:miter;stroke-miterlimit:4;stroke-dasharray:none;stroke-dashoffset:0;stroke-opacity:1" />
    <path
       id="path5764"
       d="M 39.625 26.34375 C 43.95499 33.843514 38.243655 48.952764 47.875 57 L 53.21875 57 C 40.611502 49.423156 45.213499 33.132233 39.625 26.34375 z "
       style="color:#000000;fill:#6ce3ff;fill-opacity:0.65295172;fill-rule:nonzero;stroke:none;stroke-width:1;marker:none;visibility:visible;display:inline;overflow:visible;enable-background:accumulate;stroke-linecap:butt;stroke-linejoin:miter;stroke-miterlimit:4;stroke-dasharray:none;stroke-dashoffset:0;stroke-opacity:1" />
    <path
       id="path5758"
       d="M 39.625 26.34375 C 46.156334 32.875083 43.911519 50.717233 58 54.71875 L 58 51.4375 C 46.557095 46.129309 46.292235 31.10606 39.625 26.34375 z "
       style="color:#000000;fill:#6ce3ff;fill-opacity:0.65295172;fill-rule:nonzero;stroke:none;stroke-width:1;marker:none;visibility:visible;display:inline;overflow:visible;enable-background:accumulate;stroke-linecap:butt;stroke-linejoin:miter;stroke-miterlimit:4;stroke-dasharray:none;stroke-dashoffset:0;stroke-opacity:1" />
    <path
       id="path5752"
       d="M 39.625 26.34375 C 46.21203 30.146774 49.036297 42.898749 58 47.40625 L 58 43.65625 C 49.874303 38.914113 45.943267 28.710791 39.625 26.34375 z "
       style="color:#000000;fill:#6ce3ff;fill-opacity:0.65295172;fill-rule:nonzero;stroke:none;stroke-width:1;marker:none;visibility:visible;display:inline;overflow:visible;enable-background:accumulate;stroke-linecap:butt;stroke-linejoin:miter;stroke-miterlimit:4;stroke-dasharray:none;stroke-dashoffset:0;stroke-opacity:1" />
    <path
       id="path5746"
       d="M 39.625 26.34375 C 45.691243 27.969195 50.855245 36.143791 58 40.09375 L 58 36.875 C 50.87205 33.430344 45.351143 26.898916 39.625 26.34375 z "
       style="color:#000000;fill:#6ce3ff;fill-opacity:0.65295172;fill-rule:nonzero;stroke:none;stroke-width:1;marker:none;visibility:visible;display:inline;overflow:visible;enable-background:accumulate;stroke-linecap:butt;stroke-linejoin:miter;stroke-miterlimit:4;stroke-dasharray:none;stroke-dashoffset:0;stroke-opacity:1" />
    <path
       id="path5740"
       d="M 40.78125 26.21875 C 40.394699 26.233124 40 26.28125 39.625 26.34375 C 45.121573 26.34375 51.244581 31.362682 58 33.9375 L 58 31.28125 C 51.564499 29.576722 45.712639 26.035378 40.78125 26.21875 z "
       style="color:#000000;fill:#6ce3ff;fill-opacity:0.65295172;fill-rule:nonzero;stroke:none;stroke-width:1;marker:none;visibility:visible;display:inline;overflow:visible;enable-background:accumulate;stroke-linecap:butt;stroke-linejoin:miter;stroke-miterlimit:4;stroke-dasharray:none;stroke-dashoffset:0;stroke-opacity:1" />
    <path
       id="path5734"
       d="M 44.3125 25.40625 C 42.59127 25.461026 41.009184 25.71404 39.625 26.34375 C 44.603389 25.009794 51.260254 27.786926 58 28.75 L 58 26.34375 C 53.131624 26.270863 48.331573 25.278349 44.3125 25.40625 z "
       style="color:#000000;fill:#6ce3ff;fill-opacity:0.65295172;fill-rule:nonzero;stroke:none;stroke-width:1;marker:none;visibility:visible;display:inline;overflow:visible;enable-background:accumulate;stroke-linecap:butt;stroke-linejoin:miter;stroke-miterlimit:4;stroke-dasharray:none;stroke-dashoffset:0;stroke-opacity:1" />
    <path
       id="path5728"
       d="M 58 21.40625 C 51.071356 23.28373 43.662526 23.019927 39.625 26.34375 C 44.08831 23.766857 51.2409 24.751427 58 23.9375 L 58 21.40625 z "
       style="color:#000000;fill:#6ce3ff;fill-opacity:0.65295172;fill-rule:nonzero;stroke:none;stroke-width:1;marker:none;visibility:visible;display:inline;overflow:visible;enable-background:accumulate;stroke-linecap:butt;stroke-linejoin:miter;stroke-miterlimit:4;stroke-dasharray:none;stroke-dashoffset:0;stroke-opacity:1" />
    <path
       id="path5722"
       d="M 58 15.625 C 51.440624 20.121196 42.983547 21.641784 39.625 26.34375 C 43.513125 22.455624 51.40102 21.677637 58 18.71875 L 58 15.625 z "
       style="color:#000000;fill:#6ce3ff;fill-opacity:0.65295172;fill-rule:nonzero;stroke:none;stroke-width:1;marker:none;visibility:visible;display:inline;overflow:visible;enable-background:accumulate;stroke-linecap:butt;stroke-linejoin:miter;stroke-miterlimit:4;stroke-dasharray:none;stroke-dashoffset:0;stroke-opacity:1" />
    <path
       id="path5716"
       d="M 55.59375 10 C 50.488235 16.805384 41.787691 20.570947 39.625 26.34375 C 42.82377 20.803317 52.369277 17.94927 58 11.84375 L 58 10 L 55.59375 10 z "
       style="color:#000000;fill:#6ce3ff;fill-opacity:0.65295172;fill-rule:nonzero;stroke:none;stroke-width:1;marker:none;visibility:visible;display:inline;overflow:visible;enable-background:accumulate;stroke-linecap:butt;stroke-linejoin:miter;stroke-miterlimit:4;stroke-dasharray:none;stroke-dashoffset:0;stroke-opacity:1" />
    <path
       id="path5710"
       d="M 49.0625 10 C 45.490269 16.176768 40.126722 21.168838 39.625 26.34375 C 41.092712 20.866174 47.90753 16.127965 52.125 10 L 49.0625 10 z "
       style="color:#000000;fill:#6ce3ff;fill-opacity:0.65295172;fill-rule:nonzero;stroke:none;stroke-width:1;marker:none;visibility:visible;display:inline;overflow:visible;enable-background:accumulate;stroke-linecap:butt;stroke-linejoin:miter;stroke-miterlimit:4;stroke-dasharray:none;stroke-dashoffset:0;stroke-opacity:1" />
    <path
       id="rect3012"
       d="M 43.9375 10 C 41.966626 16.134126 38.849759 21.692302 39.625 26.34375 C 39.625 21.401978 43.682152 15.959318 46.375 10 L 43.9375 10 z "
       style="color:#000000;fill:#6ce3ff;fill-opacity:0.65295172;fill-rule:nonzero;stroke:none;stroke-width:1;marker:none;visibility:visible;display:inline;overflow:visible;enable-background:accumulate;stroke-linecap:butt;stroke-linejoin:miter;stroke-miterlimit:4;stroke-dasharray:none;stroke-dashoffset:0;stroke-opacity:1" />
  </g>
</svg>

<?xml version="1.0" encoding="UTF-8"?>
<!-- Created with Inkscape (http://www.inkscape.org/) -->
<svg width="64" height="64" version="1.1" xmlns="http://www.w3.org/2000/svg" xmlns:cc="http://creativecommons.org/ns#" xmlns:dc="http://purl.org/dc/elements/1.1/" xmlns:rdf="http://www.w3.org/1999/02/22-rdf-syntax-ns#">
	<defs>
		<radialGradient id="b" cx="18.161" cy="21.075" r="32" gradientTransform="matrix(1.8449,0,0,1.8449,-10.998,-11.484)" gradientUnits="userSpaceOnUse">
			<stop stop-color="#294c79" offset="0"/>
			<stop stop-color="#27456a" offset="1"/>
		</radialGradient>
		<radialGradient id="a" cx="29.445" cy="61.742" r="26" gradientTransform="matrix(1.963,0,0,1.9945,-26.567,-68.247)" gradientUnits="userSpaceOnUse">
			<stop stop-color="#37c198" stop-opacity=".7451" offset="0"/>
			<stop stop-color="#4a6ad5" offset="1"/>
		</radialGradient>
	</defs>
	<metadata>
		<rdf:RDF>
			<cc:Work rdf:about="">
				<dc:format>image/svg+xml</dc:format>
				<dc:type rdf:resource="http://purl.org/dc/dcmitype/StillImage"/>
				<dc:title/>
			</cc:Work>
		</rdf:RDF>
	</metadata>
	<path d="m0 1 2-1h60l2 1v59s-16 4-32 4-32-4-32-4z" color="#000000" fill="url(#b)"/>
	<path d="m0 1 2-1h60l2 1v1h-64z" color="#000000" fill="#9bb4d3"/>
	<path d="m64 4-2-2 2-1z" fill="#607794"/>
	<path d="m0 4 2-2-2-1z" fill="#c8d9ee"/>
	<path d="m5 7h54v49h-54z" color="#000000" fill="#1d8ee8"/>
	<path d="m5 7h54v49h-54z" color="#000000" fill="url(#a)"/>
	<path d="m29.508 57.008v1.0678h1.0678v-1.0678zm3.5593 0v1.4237h1.4237v-1.4237zm-1.7797 0.35593v1.0678h1.4237v-1.0678zm-1.4237 1.4237v1.4237h1.0678v-1.4237zm1.4237 0v1.4237h1.4237v-1.4237zm1.7797 0v1.4237h1.0678v-1.4237zm-3.5593 1.7797v1.4237h1.4237v-1.4237zm1.7797 0v1.0678h1.4237v-1.0678zm2.1356 0.35593v1.0678h1.0678v-1.0678z" color="#000000" fill="#edeff3" fill-opacity=".23183"/>
	<g transform="matrix(1.0385 0 0 1.0426 -1.2308 -3.4255)" fill="#6cffbc" fill-opacity=".79857">
		<path d="m39.531 10c-0.37522 6.2301-1.8017 12.177 0.09375 16.344-1.1998-4.4778 0.94967-10.311 2.0938-16.344z" color="#000000"/>
		<path d="m35.188 10c1.3685 6.3106 1.4341 12.695 4.4375 16.344-2.3203-4.0188-1.7598-10.214-2.2188-16.344z" color="#000000"/>
		<path d="m30.188 10c3.5614 6.181 5.2078 13.323 9.4375 16.344-3.4952-3.4952-4.4703-10.225-6.7812-16.344z" color="#000000"/>
		<path d="m22.781 10c7.1283 5.043 10.929 14.128 16.844 16.344-4.9248-2.8433-7.7413-10.68-12.594-16.344z" color="#000000"/>
		<path d="m13.844 10.438c-2.378-0.062839-4.9713 0.47584-7.8438 1.7812v2.8125c15.72-5.8899 24.409 10.419 33.625 11.312-7.9689-2.1353-14.385-15.605-25.781-15.906z" color="#000000"/>
		<path d="m13.625 17.25c-2.4609 0.073242-5.0176 0.76446-7.625 2.3438v3.375c12.975-7.4682 24.888 4.8311 33.625 3.375-7.5 0-16.156-9.3867-26-9.0938z" color="#000000"/>
		<path d="m16.469 23.625c-3.668 0.13268-7.2438 1.2713-10.469 4.3438v4.0938c10.618-10.98 25.497-2.021 33.625-5.7188-6.1578 1.65-14.883-3.018-23.156-2.7188z" color="#000000"/>
		<path d="m39.625 26.344c-8.5798 4.9536-27.091-3.2082-33.625 13.469v7.9062c4.895-22.183 25.716-14.864 33.625-21.375z" color="#000000"/>
		<path d="m39.625 26.344c-8.0017 8.0017-32.951 2.8122-28.656 30.656h1.8125c-1.9143-24.047 20.779-22.165 26.844-30.656z" color="#000000"/>
		<path d="m39.625 26.344c-5.1495 8.9192-26.694 10.932-21.969 30.656h2.4375c-2.5608-17.653 16.211-21.794 19.531-30.656z" color="#000000"/>
		<path d="m39.625 26.344c-2.4231 9.0431-19.407 16.061-15.219 30.656h3.0312c-2.9617-13.877 11.352-22.037 12.188-30.656z" color="#000000"/>
		<path d="m39.625 26.344c0 8.6566-12.459 18.877-8.1562 30.656h3.4062c-4.2745-11.819 6.0945-22.589 4.75-30.656z" color="#000000"/>
		<path d="m39.625 26.344c2.1642 8.0771-6.523 20.563-0.625 30.656h3.8125c-6.9552-10.278 0.17694-23.261-3.1875-30.656z" color="#000000"/>
		<path d="m39.625 26.344c4.33 7.4998-1.3813 22.609 8.25 30.656h5.3438c-12.607-7.5768-8.0053-23.868-13.594-30.656z" color="#000000"/>
		<path d="m39.625 26.344c6.5313 6.5313 4.2865 24.373 18.375 28.375v-3.2812c-11.443-5.3082-11.708-20.331-18.375-25.094z" color="#000000"/>
		<path d="m39.625 26.344c6.587 3.803 9.4113 16.555 18.375 21.062v-3.75c-8.1257-4.7421-12.057-14.945-18.375-17.312z" color="#000000"/>
		<path d="m39.625 26.344c6.0662 1.6254 11.23 9.8 18.375 13.75v-3.2188c-7.128-3.4447-12.649-9.9761-18.375-10.531z" color="#000000"/>
		<path d="m40.781 26.219c-0.38655 0.01437-0.78125 0.0625-1.1562 0.125 5.4966 0 11.62 5.0189 18.375 7.5938v-2.6562c-6.4355-1.7045-12.287-5.2459-17.219-5.0625z" color="#000000"/>
		<path d="m44.312 25.406c-1.7212 0.05478-3.3033 0.30779-4.6875 0.9375 4.9784-1.334 11.635 1.4432 18.375 2.4062v-2.4062c-4.8684-0.07289-9.6684-1.0654-13.688-0.9375z" color="#000000"/>
		<path d="m58 21.406c-6.9286 1.8775-14.337 1.6137-18.375 4.9375 4.4633-2.5769 11.616-1.5923 18.375-2.4062z" color="#000000"/>
		<path d="m58 15.625c-6.5594 4.4962-15.016 6.0168-18.375 10.719 3.8881-3.8881 11.776-4.6661 18.375-7.625z" color="#000000"/>
		<path d="m55.594 10c-5.1055 6.8054-13.806 10.571-15.969 16.344 3.1988-5.5404 12.744-8.3945 18.375-14.5v-1.8438z" color="#000000"/>
		<path d="m49.062 10c-3.5722 6.1768-8.9358 11.169-9.4375 16.344 1.4677-5.4776 8.2825-10.216 12.5-16.344z" color="#000000"/>
		<path d="m43.938 10c-1.9709 6.1341-5.0877 11.692-4.3125 16.344 0-4.9418 4.0572-10.384 6.75-16.344z" color="#000000"/>
	</g>
</svg>
